X: 1186
T: The Golden Eagle
B: ralph
B: to learn
M:4/4
Q: 1/4=100
K:Gmajor
V:1 
|:(3BAG|"G"GB,DG BDGB|"G" dGBd gbag|"D7" fedc AFBA|"D7"GDBA (3FED (3cBA|
 "G"GB,DG BDGB|"G" dGBd gbag|"D" fedc AFBA|"G"G2 B2 G2:|
 |:(3bbb|"B7"bB^df bagf|"Em"e^def g2 fg|"A7"aA^ce agfe|"D"(3ded "A7"ce "D"d2 ab|
 "D7"c'afd ^cdef|"G" gfga b2ag|"D7"fed^c cFBA|"G"G2 B2 G2:|
% abcbook-tune_id 6345401a5953abd2c1ec8616


% abcbook-boost 0
% abcbook-tablature 
% abcbook-transpose 
% abcbook-lastupdated 1666000406257
% abcbook-soundfonts 
% abcbook-repeats 3


